!!!COM: Bach, Johann Sebastian
!!!OPR: Joh. Seb. Bachs vierstimmige Choralgesänge
!!!XEN: Four-part Chorales
!!!OTL: 115. In dulci jubilo
!!!SCT: BWV 368
!!!SCA: Thematisch-systematisches Verzeichnis der musikalischen Werke Johann Sebastian Bach: Bach-Werke-Verzeichnis (Schmieder)
!!!YOR: Bach Gesellschaft Edition xxxix
!!!ENC: Steven Rasmussen
!!!CDT: 1685/3//-1750/7/28/
!!!OCY: Deutschland
!!!YEC: Copyright (c) 1994, 2000 Center for Computer Assisted Research in the Humanities
!!!YEM: Rights to all derivative editions reserved
!!!YEN: United States of America
**kern	**silbe	**kern	**silbe	**kern	**silbe	**kern	**silbe
*I:[BASSO]	*I:[BASSO]	*I:[TENORE]	*I:[TENORE]	*I:[ALTO]	*I:[ALTO]	*I:[SOPRANO]	*I:[SOPRANO]
*clefF4	*	*clefGv2	*	*clefG2	*	*clefG2	*
*k[b-]	*	*k[b-]	*	*k[b-]	*	*k[b-]	*
*F:	*	*F:	*	*F:	*	*F:	*
*M3/4	*	*M3/4	*	*M3/4	*	*M3/4	*
4F	.	4A	.	4c	.	4f	In
=1	=1	=1	=1	=1	=1	=1	=1
4D	.	2A	.	2d	.	2f	dul-
4C	.	.	.	.	.	.	.
4BB-	.	4B-	.	4d	.	4f	-ci
=2	=2	=2	=2	=2	=2	=2	=2
4AA	ju-	2c	.	2e	.	2a	ju-
8BB-L	-bi-	.	.	.	.	.	.
8AA	.	.	.	.	.	.	.
8GG	.	4B-	.	4e	.	4b-	-bi-
8AAJ	.	.	.	.	.	.	.
=3	=3	=3	=3	=3	=3	=3	=3
8FFL	-lo	2A	.	[2.f	.	2cc	-lo
8F	.	.	.	.	.	.	.
8E-	.	.	.	.	.	.	.
8D	.	.	.	.	.	.	.
8C	.	4B-	.	.	.	4dd	.
8BB-J	.	.	.	.	.	.	.
=4	=4	=4	=4	=4	=4	=4	=4
2.F;	.	2.A;	.	2.f;]	.	2.cc;	.
=5	=5	=5	=5	=5	=5	=5	=5
4D	.	2A	.	4f	.	2f	sin-
4C	.	.	.	4e	.	.	.
4BB-	.	4B-	.	4d	.	4f	-get
=6	=6	=6	=6	=6	=6	=6	=6
4F	.	4A	.	2c	.	2a	und
4E	.	4G	.	.	.	.	.
4D	.	4F	.	4d	.	4b-	seid
=7	=7	=7	=7	=7	=7	=7	=7
4E	.	4G	.	4c	.	2cc	froh,
4C	.	4c	.	4e	.	.	.
4GG	.	4Bn	.	4g	.	4dd	.
=8	=8	=8	=8	=8	=8	=8	=8
2.C;	.	2.G;	.	2.e;	.	2.cc;	.
=9	=9	=9	=9	=9	=9	=9	=9
2F	.	2A	.	2f	.	2cc	un-
4B-	.	4B-	.	4f	.	4dd	-sers
=10	=10	=10	=10	=10	=10	=10	=10
4B-	.	4c	.	4e	.	2cc	Her-
4A	.	4d	.	4f	.	.	.
4G	.	4e	.	4g	.	4b-	-zens
=11	=11	=11	=11	=11	=11	=11	=11
4G	.	4A	.	4c#	.	4.a	Won-
4F	.	4Bn	.	4d	.	.	.
.	.	.	.	.	.	8b-L	.
4E	.	4c#	.	4e	.	8a	.
.	.	.	.	.	.	8gJ	.
=12	=12	=12	=12	=12	=12	=12	=12
2D;	.	2d;	.	2A;	.	2f;	-ne
4AA	.	4c	liegt	[4f	liegt	4f	liegt
=13	=13	=13	=13	=13	=13	=13	=13
4BB-	.	4d	in	4f]	.	2g	in
4GG	.	4B-	.	8eL	in	.	.
.	.	.	.	8dJ	.	.	.
4C	prae-	4c	prae-	4e	prae-	4g	prae-
=14	=14	=14	=14	=14	=14	=14	=14
8FFL	-se-	[2.c	-se-	2f	-se-	2a	-se-
8GG	.	.	.	.	.	.	.
8AA	.	.	.	.	.	.	.
8BB-	.	.	.	.	.	.	.
8C	.	.	.	4e	-pi-	4g	-pi-
8BB-J	.	.	.	.	.	.	.
=15	=15	=15	=15	=15	=15	=15	=15
4AA	.	4c]	.	4.f	-o,	2f	-o,
4FF	.	4A	.	.	.	.	.
.	.	.	.	8gL	.	.	.
4CC	-pi-	4c	-pi-	8f	.	4g	.
.	.	.	.	8eJ	.	.	.
=16	=16	=16	=16	=16	=16	=16	=16
2.FF;	-o,	2.c;	-o,	2.f;	.	2.a;	.
=17	=17	=17	=17	=17	=17	=17	=17
4F	.	2A	.	2f	.	2cc	leuch-
4E	.	.	.	.	.	.	.
4D	.	4B-	.	4f	.	4dd	-tet
=18	=18	=18	=18	=18	=18	=18	=18
4E	.	2G	.	4g	.	2cc	als
4D	.	.	.	4f	.	.	.
4C	.	4e	.	4g	.	4b-	die
=19	=19	=19	=19	=19	=19	=19	=19
8FL	.	4e	.	4g	.	4.a	Son-
8GJ	.	.	.	.	.	.	.
4A	.	4d	.	4f	.	.	.
.	.	.	.	.	.	8b-L	.
4AA	.	4c#	.	4e	.	8a	.
.	.	.	.	.	.	8gJ	.
=20	=20	=20	=20	=20	=20	=20	=20
2D;	.	2A;	.	2d;	.	2f;	-ne
4AA	.	4c	ma-	[4f	ma-	4f	ma-
=21	=21	=21	=21	=21	=21	=21	=21
4BB-	.	4d	-tris	4f]	.	2g	-tris
4GG	.	4B-	.	8eL	-tris	.	.
.	.	.	.	8dJ	.	.	.
4C	.	4c	in	4e	in	4g	in
=22	=22	=22	=22	=22	=22	=22	=22
8FFL	gre-	2c	gre-	2f	gre-	2a	gre-
8GG	.	.	.	.	.	.	.
8AA	.	.	.	.	.	.	.
8BB-	.	.	.	.	.	.	.
8C	.	4c	-mi-	[4e	.	4g	-mi-
8AAJ	.	.	.	.	.	.	.
=23	=23	=23	=23	=23	=23	=23	=23
4D	.	2A	-o,	4e]	.	2f	-o,
4C	.	.	.	4A	.	.	.
4BB-	-mi-	4B-	.	4d	-mi-	4g	.
=24	=24	=24	=24	=24	=24	=24	=24
2.AA;	-o,	2.E;	.	2.c#;	-o,	2.a;	.
=25	=25	=25	=25	=25	=25	=25	=25
4BB-	Al-	8r	.	2d	Al-	2d	Al-
.	.	8FL	Al-	.	.	.	.
4AA	.	8G	.	.	.	.	.
.	.	8A	.	.	.	.	.
4GG	-pha	8B-	.	[4d	-pha	4d	-pha
.	.	8AJ	.	.	.	.	.
=26	=26	=26	=26	=26	=26	=26	=26
4C	es	4G	.	4d]	.	2e	es
4BB-	.	8AL	-pha	8cL	es	.	.
.	.	8B-	.	8dJ	.	.	.
4AA	et	8c	.	[4e	et	4e	et
.	.	8B-J	.	.	.	.	.
=27	=27	=27	=27	=27	=27	=27	=27
8DL	O,	4.A	es	4e]	.	8fL	O,
8C	.	.	.	.	.	8e	.
8D	.	.	.	2d	.	8f	.
8E	.	8G	.	.	.	8g	.
8F	.	4F	et	.	.	8a	.
8DJ	.	.	.	.	.	8b-J	.
=28	=28	=28	=28	=28	=28	=28	=28
2.E;	.	2.G;	O,	2.c;	O,	2.cc;	.
=29	=29	=29	=29	=29	=29	=29	=29
4FF	.	4A	.	4c	.	2a	Al-
4GG	.	4B-	.	8fL	.	.	.
.	.	.	.	8eJ	.	.	.
4AA	.	4c	.	4f	.	4a	-pha
=30	=30	=30	=30	=30	=30	=30	=30
4BB-	.	4d	.	2f	.	2g	es
4GG	.	4B-	.	.	.	.	.
4C	.	4c	.	4e	.	4g	et
=31	=31	=31	=31	=31	=31	=31	=31
4AA	.	4c	.	8fL	.	[2.f	O.
.	.	.	.	8e-	.	.	.
2BB-	.	8B-L	.	8d	.	.	.
.	.	8A	.	8c	.	.	.
.	.	8B-	.	8d	.	.	.
.	.	8GJ	.	8B-J	.	.	.
=32	=32	=32	=32	=32	=32	=32	=32
2.FF;	.	2.A;	.	2.c;	.	2.f;]	.
==|!	==|!	==|!	==|!	==|!	==|!	==|!	==|!
*-	*-	*-	*-	*-	*-	*-	*-
!!!RWG: Key is interpreted using the Humdrum key tool.
!!!URL-pdf: https://s9.imslp.org/files/imglnks/usimg/6/6b/IMSLP24489-PMLP09471-CCARH_Bach_Chorales.pdf#page=80 Musedata edition
!!!URL-pdf: https://s9.imslp.org/files/imglnks/usimg/7/7a/IMSLP04155-Bach_-_BGA_253-438.pdf#page=62 	Bach-Gesellschaft Ausgabe, Band 39 (pp.175-276) Leipzig: Breitkopf und Härtel, 1892. Plate B.W. XXXIX.
!!!END: 1994/07/13
!!!EMD: Converted from MuseData to Humdrum Dec 19, 2000, by Andreas Kornstaedt using muse2kern.
!!!EED: Craig Stuart Sapp
!!!EEV: 2024/03/31
!!!ONB: Some non-unicode characters
!!!filter-keyboard: satb2gs
